X:1
T:La Mira, CM
T:La Mira, CM
T:William Batchelder Bradbury, 1861
T:Public Domain Courtesy of the Cyber Hymnal™
C:William Batchelder Bradbury, 1861
Z:Public Domain
Z:Courtesy of the Cyber Hymnal™
%%score ( 1 2 ) ( 3 4 )
L:1/8
Q:1/4=90
M:3/4
K:G
V:1 treble 
V:2 treble 
V:3 bass 
V:4 bass 
V:1
 [DB]2 | [DB]>[DB] [DB][DA] [DG][CE] | [B,D]4 [DG]2 | [DG]3 F [B,G][^CG] | ([DA]2 [Fd]2) c2 | %5
 [DB]>[DB] [DB][DA] [DG][CE] | [B,D]4 (GA) | [GB]3 [Dd] [Dc][DA] | [DG]4 |] %9
V:2
 x2 | x6 | x6 | x3 (D/^C/) x2 | x4 (ED) | x6 | x4 E2 | x6 | x4 |] %9
V:3
 [G,D]2 | [G,D]>[G,D] [G,D][G,C] [G,B,]G, | G,4 [G,B,]2 | [D,B,]3 [D,A,] [E,G,][E,G,] | %4
 (F,2 A,2) ([E,G,][F,A,]) | G,>G, G,G, G,G, | [G,B,]4 [E,B,]2 | [D,D]3 [D,B,] [D,A,][D,C] | %8
 [G,,B,]4 |] %9
V:4
 x2 | x5 G, | G,4 x2 | x6 | D,4 x2 | G,>G, G,G, G,G, | x6 | x6 | x4 |] %9

